X:0109
T:Rory O'More
P:Rory O'More
C:Irish
R:Jig (8x32)
B:RSCDS 1-9
Z:Anselm Lingnau <anselm@strathspey.org>
M:6/8
L:1/8
K:G
|:e|"G"dGG BGG|dGG G2e|dcB BAG|"D"FAA ABc|
    "G"dGG BGG|Bcd "C"e2d|"G"Bcd "D7"def|"G"gGG G2:|
|:g|"Em"gfe eBB|"Am"cBA "Em"G2F|"C"E2F G2A|"G"Bed "Bm"def|
    "Em"gfe eBB|"Am"cBA "Em"G2F|1"Am"EFG "Em"GAB|"Bm"Bed "D7"[d2c2F2]:|\
                               [2"Am"E2F "D7"G2A|"G"BGG G2|]

